src/icons/outline/sort-descending.svg

<svg xmlns="http://www.w3.org/2000/svg" fill="none" viewBox="0 0 24 24" stroke="currentColor">
  <path stroke-linecap="round" stroke-linejoin="round" stroke-width="2" d="M3 4h13M3 8h9m-9 4h9m5-4v12m0 0l-4-4m4 4l4-4"/>
</svg>

<svg width="24" height="24" viewBox="0 0 24 24" fill="none" xmlns="http://www.w3.org/2000/svg">
<path d="M3 4H16M3 8H12M3 12H12M17 8V20M17 20L13 16M17 20L21 16" stroke="#4A5568" stroke-width="2" stroke-linecap="round" stroke-linejoin="round"/>
</svg>
